brandFactory_export/3.Masa/Abierto _3Masa.svg

<?xml version="1.0" encoding="UTF-8"?>
<svg width="24px" height="24px" viewBox="0 0 24 24" version="1.1" xmlns="http://www.w3.org/2000/svg" xmlns:xlink="http://www.w3.org/1999/xlink">
    <title>3.Masa/Abierto _3Masa</title>
    <g id="Symbols" stroke="none" stroke-width="1" fill="none" fill-rule="evenodd">
        <g id="3.Masa/Abierto-_3Masa" fill="#5CB615" fill-rule="nonzero">
            <path d="M4.3394958,10.8235294 L19.307563,10.8201681 L12.8369748,4.36638655 C12.5277311,4.5210084 12.1815126,4.61848739 11.8117647,4.61848739 C11.4420168,4.61848739 11.0991597,4.5210084 10.789916,4.36638655 L4.3394958,10.8235294 Z M18.6857143,18.8369748 L18.6857143,15.2537815 C18.6857143,14.9848739 18.4705882,14.7731092 18.205042,14.7731092 L18.0605042,14.7731092 C17.794958,14.7731092 17.5798319,14.9882353 17.5798319,15.2537815 L17.5798319,16.9243697 L16.2991597,14.9848739 C16.2084034,14.8537815 16.0605042,14.7697479 15.8991597,14.7697479 L15.7848739,14.7697479 C15.5193277,14.7697479 15.3042017,14.9848739 15.3042017,15.2504202 L15.3042017,18.8336134 C15.3042017,19.0991597 15.5193277,19.3143246 15.7848739,19.3143246 L15.9327731,19.3143246 C16.1983193,19.3143246 16.4134454,19.0991597 16.4134454,18.8336134 L16.4134454,17.1630252 L17.6907563,19.0991597 C17.7781513,19.2336134 17.9294118,19.3143246 18.0907563,19.3143246 L18.2117647,19.3143246 C18.4705882,19.3176471 18.6857143,19.102521 18.6857143,18.8369748 L18.6857143,18.8369748 Z M14.6789916,18.8369748 L14.6789916,18.6957983 C14.6789916,18.4302521 14.4638655,18.2151261 14.1983193,18.2151261 L13.0689076,18.2151261 L13.0689076,17.5697479 L13.8621849,17.5697479 C14.1277311,17.5697479 14.3428571,17.3546218 14.3428571,17.0890756 L14.3428571,16.9478992 C14.3428571,16.6823529 14.1277311,16.4672269 13.8621849,16.4672269 L13.0689076,16.4672269 L13.0689076,15.8789916 L14.1142857,15.8789916 C14.3394958,15.8789916 14.5344538,15.7210084 14.5848739,15.502521 L14.6151261,15.3613445 C14.6453782,15.2201681 14.6117647,15.0689076 14.5210084,14.9546218 C14.4302521,14.8436975 14.292437,14.7764706 14.1445378,14.7764706 L12.4336134,14.7764706 C12.1680672,14.7764706 11.9529412,14.9915966 11.9529412,15.2571429 L11.9529412,18.8403361 C11.9529412,19.1058824 12.1680672,19.3210084 12.4336134,19.3210084 L14.1983193,19.3210084 C14.4638655,19.3176471 14.6789916,19.102521 14.6789916,18.8369748 L14.6789916,18.8369748 Z M10.994958,17.4621849 C11.2369748,17.1865546 11.3579832,16.8201681 11.3579832,16.3327731 C11.3579832,15.8386555 11.2268908,15.4521008 10.9647059,15.1764706 C10.7092437,14.9042017 10.3361345,14.7731092 9.82184874,14.7731092 L8.82689076,14.7731092 C8.56134454,14.7731092 8.34621849,14.9882353 8.34621849,15.2537815 L8.34621849,18.8369748 C8.34621849,19.102521 8.56134454,19.3176471 8.82689076,19.3176471 L8.98487395,19.3176471 C9.25042017,19.3176471 9.46554622,19.102521 9.46554622,18.8369748 L9.46554622,17.892437 L9.93277311,17.892437 C10.389916,17.892437 10.7495798,17.7445378 10.994958,17.4621849 Z M5.92941176,19.3915966 C6.58823529,19.3915966 7.69411765,19.0890756 7.69411765,17.0521008 C7.69411765,15.0084034 6.58823529,14.7058824 5.92941176,14.7058824 C5.26722689,14.7058824 4.16134454,15.0117647 4.16134454,17.0521008 C4.16134454,19.0857143 5.26722689,19.3915966 5.92941176,19.3915966 Z M11.8117647,1.47563025 C11.3445378,1.47563025 10.9613445,1.85882353 10.9613445,2.32605042 C10.9613445,2.79327731 11.3411765,3.17647059 11.8117647,3.17647059 C12.2823529,3.17647059 12.6621849,2.79327731 12.6621849,2.32605042 C12.6621849,1.85882353 12.2823529,1.47563025 11.8117647,1.47563025 Z M23.6,13.8252101 L23.6235294,20.8 C23.6235294,21.5630252 23.3277311,22.2789916 22.789916,22.8168067 C22.2521008,23.3546218 21.5394958,23.6504202 20.7764706,23.6537815 L2.84033613,23.6571429 C1.98991597,23.6504202 1.24369748,23.3478992 0.736134454,22.8067227 C0.225210084,22.2588235 -0.0235294118,21.5159664 0.0235294118,20.6554622 L0,13.6806723 C0,12.9176471 0.295798319,12.2016807 0.833613445,11.6605042 C1.22352941,11.2739496 1.70420168,11.0151261 2.22521008,10.9008403 L9.77142857,3.34789916 C9.61680672,3.03865546 9.51932773,2.69579832 9.51932773,2.32605042 C9.51932773,1.05882353 10.5478992,0.0302521008 11.8117647,0.0302521008 C13.0756303,0.0302521008 14.1042017,1.05882353 14.1042017,2.32605042 C14.1042017,2.69579832 14.010084,3.03865546 13.8554622,3.34789916 L21.4117647,10.8840336 C21.9966387,10.9983193 22.507563,11.2672269 22.887395,11.6705882 C23.3983193,12.2184874 23.6470588,12.9647059 23.6,13.8252101 Z M5.92941176,15.8218487 C6.1512605,15.8218487 6.56470588,15.8218487 6.56470588,17.0487395 C6.56470588,18.2655462 6.16806723,18.2655462 5.92941176,18.2655462 C5.6907563,18.2655462 5.2907563,18.2655462 5.2907563,17.0487395 C5.2907563,15.8218487 5.6907563,15.8218487 5.92941176,15.8218487 L5.92941176,15.8218487 Z M9.80168067,15.8756303 C10.0705882,15.8756303 10.1344538,15.9327731 10.1344538,15.9327731 C10.1781513,15.9831933 10.2252101,16.1176471 10.2252101,16.3428571 C10.2252101,16.6184874 10.1848739,16.6890756 10.1478992,16.7294118 C10.1243697,16.7563025 10.097479,16.789916 9.86554622,16.789916 L9.46218487,16.789916 L9.46218487,15.8756303 L9.80168067,15.8756303 Z" id="Abierto-_3Masa"></path>
        </g>
    </g>
</svg>

<svg width="24" height="24" viewBox="0 0 24 24" xmlns="http://www.w3.org/2000/svg"><path d="M4.34 10.824l14.968-.004-6.471-6.454c-.31.155-.655.252-1.025.252-.37 0-.713-.097-1.022-.252l-6.45 6.458zm14.346 8.013v-3.583a.478.478 0 00-.481-.48h-.144a.48.48 0 00-.481.48v1.67l-1.28-1.94a.49.49 0 00-.4-.214h-.115a.48.48 0 00-.48.48v3.584c0 .265.214.48.48.48h.148a.48.48 0 00.48-.48v-1.671l1.278 1.936a.477.477 0 00.4.215h.12a.474.474 0 00.475-.477zm-4.007 0v-.141a.48.48 0 00-.48-.48h-1.13v-.646h.793a.48.48 0 00.48-.48v-.142a.48.48 0 00-.48-.48h-.793v-.589h1.045c.225 0 .42-.158.47-.376l.031-.142a.492.492 0 00-.094-.406.487.487 0 00-.376-.179h-1.711a.48.48 0 00-.481.481v3.583c0 .266.215.481.48.481h1.765a.486.486 0 00.481-.484zm-3.684-1.375c.242-.275.363-.642.363-1.13 0-.493-.131-.88-.393-1.156-.256-.272-.629-.403-1.143-.403h-.995a.48.48 0 00-.48.48v3.584c0 .266.214.48.48.48h.158a.48.48 0 00.48-.48v-.945h.468c.457 0 .817-.147 1.062-.43zm-5.066 1.93c.66 0 1.765-.303 1.765-2.34 0-2.044-1.106-2.346-1.765-2.346-.662 0-1.768.306-1.768 2.346 0 2.034 1.106 2.34 1.768 2.34zm5.883-17.916a.851.851 0 10.85.85c0-.467-.38-.85-.85-.85zM23.6 13.826l.024 6.974c0 .763-.296 1.479-.834 2.017a2.841 2.841 0 01-2.014.837l-17.936.003c-.85-.007-1.596-.31-2.104-.85-.51-.548-.76-1.291-.712-2.152L0 13.681a2.833 2.833 0 012.225-2.78l7.546-7.553a2.273 2.273 0 01-.252-1.022A2.296 2.296 0 0111.812.03a2.296 2.296 0 012.292 2.296c0 .37-.094.713-.249 1.022l7.557 7.536c.585.114 1.096.383 1.475.787.511.547.76 1.294.713 2.154zM5.93 15.821c.221 0 .635 0 .635 1.227 0 1.217-.397 1.217-.636 1.217-.238 0-.638 0-.638-1.217 0-1.227.4-1.227.638-1.227zm3.872.054c.269 0 .332.057.332.057.044.05.091.185.091.41 0 .275-.04.346-.077.386-.024.027-.05.06-.282.06h-.404v-.913h.34z" fill="#5CB615" fill-rule="nonzero"/></svg>
